X: 213
T: Eau De Luce
N: Pub: J. Walsh, London, 1748
Z: 2012 John Chambers <jc:trillian.mit.edu>
S: 4: ACMV  http://archive.org/details/acompositemusicv01rugg p.3:20
N: Triplet notation added to all the triplets.
M: C|
L: 1/8
K: F
% - - - - - - - - - - - - - - - - - - - - - - - - -
V: 1
|: (3(Acf) (3(agf) e2f2 | B>cA>B G/G/G G2 | (3(Acf) (3(agf) e2f2 | A>BG>A F/F/F F2 :|
|: (3(Acf) (3(Acf) (3(Bdf) (3(Bdf) | (3(Acf) (3(Acf) a2f2 |\
   (3(Acf) (3(Acf) (3(Bdf) (3(Bdf) | (3(def) (3(ece) f2F2 :|
% - - - - - - - - - - - - - - - - - - - - - - - - -
V: 2 clef=bass middle=d
|: f2F2 c'2a2 | g2f2 c'2c2 | f2a2 g2f2 | c'2c2 f2F2 :|
|: f4 b4 | f4 F4 | f2F2 b2g2 | b2c'2 f2F2 :|
% - - - - - - - - - - - - - - - - - - - - - - - - -
%%begintext align
%% First Cu. foot it & cast off one Cu. cast up again .|
%% Gallop down one Cu. up again & cast of [sic] :|
%% lead thro the 3d Cu. cast up into the 2d Cu.s place .|
%% foot it & Right & left at top :|:
%%endtext

%%sep 1 1 500
%%sep 1 1 500
